;Generated with FabNeuch Engine 0.1
;Basic settings: Layer height: 0.1 Walls: 0.1 Fill: 0
G21        
G90        
M107       
G28 X0 Y0
G28 Z0
G1 Z15.0 F500  
G92 E0
G1 F200 E3  
G92 E0                  
G1 F9000 
M117 Printing...
;total_layers= 40
G92 E0
G0 X103.235 Y75.86 F900 Z0.3
G1 X103.235 Y75.86 E0 F900
G3 X96.76 Y75.86 I-3.235 J24.14 E1.83758465118348 F900 
G1 X96.76 Y65 E1.97376905118348 F900
G1 X90 Y65 E2.05853945118348 F900
G1 X90 Y60 E2.12123945118348 F900
G1 X96.76 Y60 E2.20600985118348 F900
G1 X96.76 Y50 E2.33140985118348 F900
G1 X103.235 Y50 E2.41260635118348 F900
G1 X103.235 Y60 E2.53800635118348 F900
G1 X110 Y60 E2.62283945118348 F900
G1 X110 Y65 E2.68553945118348 F900
G1 X103.235 Y65 E2.77037255118348 F900
G1 X103.235 Y75.86 E2.90655695118348 F900
G92 E0
G0 X103.235 Y75.86 F900 Z0.4
G1 X103.235 Y75.86 E0 F900
G3 X96.76 Y75.86 I-3.235 J24.14 E1.83758465118348 F900 
G1 X96.76 Y65 E1.97376905118348 F900
G1 X90 Y65 E2.05853945118348 F900
G1 X90 Y60 E2.12123945118348 F900
G1 X96.76 Y60 E2.20600985118348 F900
G1 X96.76 Y50 E2.33140985118348 F900
G1 X103.235 Y50 E2.41260635118348 F900
G1 X103.235 Y60 E2.53800635118348 F900
G1 X110 Y60 E2.62283945118348 F900
G1 X110 Y65 E2.68553945118348 F900
G1 X103.235 Y65 E2.77037255118348 F900
G1 X103.235 Y75.86 E2.90655695118348 F900
G92 E0
G0 X103.235 Y75.86 F900 Z0.5
G1 X103.235 Y75.86 E0 F900
G3 X96.76 Y75.86 I-3.235 J24.14 E1.83758465118348 F900 
G1 X96.76 Y65 E1.97376905118348 F900
G1 X90 Y65 E2.05853945118348 F900
G1 X90 Y60 E2.12123945118348 F900
G1 X96.76 Y60 E2.20600985118348 F900
G1 X96.76 Y50 E2.33140985118348 F900
G1 X103.235 Y50 E2.41260635118348 F900
G1 X103.235 Y60 E2.53800635118348 F900
G1 X110 Y60 E2.62283945118348 F900
G1 X110 Y65 E2.68553945118348 F900
G1 X103.235 Y65 E2.77037255118348 F900
G1 X103.235 Y75.86 E2.90655695118348 F900
G92 E0
G0 X103.235 Y75.86 F900 Z0.6
G1 X103.235 Y75.86 E0 F900
G3 X96.76 Y75.86 I-3.235 J24.14 E1.83758465118348 F900 
G1 X96.76 Y65 E1.97376905118348 F900
G1 X90 Y65 E2.05853945118348 F900
G1 X90 Y60 E2.12123945118348 F900
G1 X96.76 Y60 E2.20600985118348 F900
G1 X96.76 Y50 E2.33140985118348 F900
G1 X103.235 Y50 E2.41260635118348 F900
G1 X103.235 Y60 E2.53800635118348 F900
G1 X110 Y60 E2.62283945118348 F900
G1 X110 Y65 E2.68553945118348 F900
G1 X103.235 Y65 E2.77037255118348 F900
G1 X103.235 Y75.86 E2.90655695118348 F900
G92 E0
G0 X103.235 Y75.86 F900 Z0.7
G1 X103.235 Y75.86 E0 F900
G3 X96.76 Y75.86 I-3.235 J24.14 E1.83758465118348 F900 
G1 X96.76 Y65 E1.97376905118348 F900
G1 X90 Y65 E2.05853945118348 F900
G1 X90 Y60 E2.12123945118348 F900
G1 X96.76 Y60 E2.20600985118348 F900
G1 X96.76 Y50 E2.33140985118348 F900
G1 X103.235 Y50 E2.41260635118348 F900
G1 X103.235 Y60 E2.53800635118348 F900
G1 X110 Y60 E2.62283945118348 F900
G1 X110 Y65 E2.68553945118348 F900
G1 X103.235 Y65 E2.77037255118348 F900
G1 X103.235 Y75.86 E2.90655695118348 F900
G92 E0
G0 X103.235 Y75.86 F900 Z0.8
G1 X103.235 Y75.86 E0 F900
G3 X96.76 Y75.86 I-3.235 J24.14 E1.83758465118348 F900 
G1 X96.76 Y65 E1.97376905118348 F900
G1 X90 Y65 E2.05853945118348 F900
G1 X90 Y60 E2.12123945118348 F900
G1 X96.76 Y60 E2.20600985118348 F900
G1 X96.76 Y50 E2.33140985118348 F900
G1 X103.235 Y50 E2.41260635118348 F900
G1 X103.235 Y60 E2.53800635118348 F900
G1 X110 Y60 E2.62283945118348 F900
G1 X110 Y65 E2.68553945118348 F900
G1 X103.235 Y65 E2.77037255118348 F900
G1 X103.235 Y75.86 E2.90655695118348 F900
G92 E0
G0 X103.235 Y75.86 F900 Z0.9
G1 X103.235 Y75.86 E0 F900
G3 X96.76 Y75.86 I-3.235 J24.14 E1.83758465118348 F900 
G1 X96.76 Y65 E1.97376905118348 F900
G1 X90 Y65 E2.05853945118348 F900
G1 X90 Y60 E2.12123945118348 F900
G1 X96.76 Y60 E2.20600985118348 F900
G1 X96.76 Y50 E2.33140985118348 F900
G1 X103.235 Y50 E2.41260635118348 F900
G1 X103.235 Y60 E2.53800635118348 F900
G1 X110 Y60 E2.62283945118348 F900
G1 X110 Y65 E2.68553945118348 F900
G1 X103.235 Y65 E2.77037255118348 F900
G1 X103.235 Y75.86 E2.90655695118348 F900
G92 E0
G0 X103.235 Y75.86 F900 Z1
G1 X103.235 Y75.86 E0 F900
G3 X96.76 Y75.86 I-3.235 J24.14 E1.83758465118348 F900 
G1 X96.76 Y65 E1.97376905118348 F900
G1 X90 Y65 E2.05853945118348 F900
G1 X90 Y60 E2.12123945118348 F900
G1 X96.76 Y60 E2.20600985118348 F900
G1 X96.76 Y50 E2.33140985118348 F900
G1 X103.235 Y50 E2.41260635118348 F900
G1 X103.235 Y60 E2.53800635118348 F900
G1 X110 Y60 E2.62283945118348 F900
G1 X110 Y65 E2.68553945118348 F900
G1 X103.235 Y65 E2.77037255118348 F900
G1 X103.235 Y75.86 E2.90655695118348 F900
G92 E0
G0 X103.235 Y75.86 F900 Z1.1
G1 X103.235 Y75.86 E0 F900
G3 X96.76 Y75.86 I-3.235 J24.14 E1.83758465118348 F900 
G1 X96.76 Y65 E1.97376905118348 F900
G1 X90 Y65 E2.05853945118348 F900
G1 X90 Y60 E2.12123945118348 F900
G1 X96.76 Y60 E2.20600985118348 F900
G1 X96.76 Y50 E2.33140985118348 F900
G1 X103.235 Y50 E2.41260635118348 F900
G1 X103.235 Y60 E2.53800635118348 F900
G1 X110 Y60 E2.62283945118348 F900
G1 X110 Y65 E2.68553945118348 F900
G1 X103.235 Y65 E2.77037255118348 F900
G1 X103.235 Y75.86 E2.90655695118348 F900
G92 E0
G0 X103.235 Y75.86 F900 Z1.2
G1 X103.235 Y75.86 E0 F900
G3 X96.76 Y75.86 I-3.235 J24.14 E1.83758465118348 F900 
G1 X96.76 Y65 E1.97376905118348 F900
G1 X90 Y65 E2.05853945118348 F900
G1 X90 Y60 E2.12123945118348 F900
G1 X96.76 Y60 E2.20600985118348 F900
G1 X96.76 Y50 E2.33140985118348 F900
G1 X103.235 Y50 E2.41260635118348 F900
G1 X103.235 Y60 E2.53800635118348 F900
G1 X110 Y60 E2.62283945118348 F900
G1 X110 Y65 E2.68553945118348 F900
G1 X103.235 Y65 E2.77037255118348 F900
G1 X103.235 Y75.86 E2.90655695118348 F900
G92 E0
G0 X103.235 Y75.86 F900 Z1.3
G1 X103.235 Y75.86 E0 F900
G3 X96.76 Y75.86 I-3.235 J24.14 E1.83758465118348 F900 
G1 X96.76 Y65 E1.97376905118348 F900
G1 X90 Y65 E2.05853945118348 F900
G1 X90 Y60 E2.12123945118348 F900
G1 X96.76 Y60 E2.20600985118348 F900
G1 X96.76 Y50 E2.33140985118348 F900
G1 X103.235 Y50 E2.41260635118348 F900
G1 X103.235 Y60 E2.53800635118348 F900
G1 X110 Y60 E2.62283945118348 F900
G1 X110 Y65 E2.68553945118348 F900
G1 X103.235 Y65 E2.77037255118348 F900
G1 X103.235 Y75.86 E2.90655695118348 F900
G92 E0
G0 X103.235 Y75.86 F900 Z1.4
G1 X103.235 Y75.86 E0 F900
G3 X96.76 Y75.86 I-3.235 J24.14 E1.83758465118348 F900 
G1 X96.76 Y65 E1.97376905118348 F900
G1 X90 Y65 E2.05853945118348 F900
G1 X90 Y60 E2.12123945118348 F900
G1 X96.76 Y60 E2.20600985118348 F900
G1 X96.76 Y50 E2.33140985118348 F900
G1 X103.235 Y50 E2.41260635118348 F900
G1 X103.235 Y60 E2.53800635118348 F900
G1 X110 Y60 E2.62283945118348 F900
G1 X110 Y65 E2.68553945118348 F900
G1 X103.235 Y65 E2.77037255118348 F900
G1 X103.235 Y75.86 E2.90655695118348 F900
G92 E0
G0 X103.235 Y75.86 F900 Z1.5
G1 X103.235 Y75.86 E0 F900
G3 X96.76 Y75.86 I-3.235 J24.14 E1.83758465118348 F900 
G1 X96.76 Y65 E1.97376905118348 F900
G1 X90 Y65 E2.05853945118348 F900
G1 X90 Y60 E2.12123945118348 F900
G1 X96.76 Y60 E2.20600985118348 F900
G1 X96.76 Y50 E2.33140985118348 F900
G1 X103.235 Y50 E2.41260635118348 F900
G1 X103.235 Y60 E2.53800635118348 F900
G1 X110 Y60 E2.62283945118348 F900
G1 X110 Y65 E2.68553945118348 F900
G1 X103.235 Y65 E2.77037255118348 F900
G1 X103.235 Y75.86 E2.90655695118348 F900
G92 E0
G0 X103.235 Y75.86 F900 Z1.6
G1 X103.235 Y75.86 E0 F900
G3 X96.76 Y75.86 I-3.235 J24.14 E1.83758465118348 F900 
G1 X96.76 Y65 E1.97376905118348 F900
G1 X90 Y65 E2.05853945118348 F900
G1 X90 Y60 E2.12123945118348 F900
G1 X96.76 Y60 E2.20600985118348 F900
G1 X96.76 Y50 E2.33140985118348 F900
G1 X103.235 Y50 E2.41260635118348 F900
G1 X103.235 Y60 E2.53800635118348 F900
G1 X110 Y60 E2.62283945118348 F900
G1 X110 Y65 E2.68553945118348 F900
G1 X103.235 Y65 E2.77037255118348 F900
G1 X103.235 Y75.86 E2.90655695118348 F900
G92 E0
G0 X103.235 Y75.86 F900 Z1.7
G1 X103.235 Y75.86 E0 F900
G3 X96.76 Y75.86 I-3.235 J24.14 E1.83758465118348 F900 
G1 X96.76 Y65 E1.97376905118348 F900
G1 X90 Y65 E2.05853945118348 F900
G1 X90 Y60 E2.12123945118348 F900
G1 X96.76 Y60 E2.20600985118348 F900
G1 X96.76 Y50 E2.33140985118348 F900
G1 X103.235 Y50 E2.41260635118348 F900
G1 X103.235 Y60 E2.53800635118348 F900
G1 X110 Y60 E2.62283945118348 F900
G1 X110 Y65 E2.68553945118348 F900
G1 X103.235 Y65 E2.77037255118348 F900
G1 X103.235 Y75.86 E2.90655695118348 F900
G92 E0
G0 X103.235 Y75.86 F900 Z1.8
G1 X103.235 Y75.86 E0 F900
G3 X96.76 Y75.86 I-3.235 J24.14 E1.83758465118348 F900 
G1 X96.76 Y65 E1.97376905118348 F900
G1 X90 Y65 E2.05853945118348 F900
G1 X90 Y60 E2.12123945118348 F900
G1 X96.76 Y60 E2.20600985118348 F900
G1 X96.76 Y50 E2.33140985118348 F900
G1 X103.235 Y50 E2.41260635118348 F900
G1 X103.235 Y60 E2.53800635118348 F900
G1 X110 Y60 E2.62283945118348 F900
G1 X110 Y65 E2.68553945118348 F900
G1 X103.235 Y65 E2.77037255118348 F900
G1 X103.235 Y75.86 E2.90655695118348 F900
G92 E0
G0 X103.235 Y75.86 F900 Z1.9
G1 X103.235 Y75.86 E0 F900
G3 X96.76 Y75.86 I-3.235 J24.14 E1.83758465118348 F900 
G1 X96.76 Y65 E1.97376905118348 F900
G1 X90 Y65 E2.05853945118348 F900
G1 X90 Y60 E2.12123945118348 F900
G1 X96.76 Y60 E2.20600985118348 F900
G1 X96.76 Y50 E2.33140985118348 F900
G1 X103.235 Y50 E2.41260635118348 F900
G1 X103.235 Y60 E2.53800635118348 F900
G1 X110 Y60 E2.62283945118348 F900
G1 X110 Y65 E2.68553945118348 F900
G1 X103.235 Y65 E2.77037255118348 F900
G1 X103.235 Y75.86 E2.90655695118348 F900
G92 E0
G0 X103.235 Y75.86 F900 Z2
G1 X103.235 Y75.86 E0 F900
G3 X96.76 Y75.86 I-3.235 J24.14 E1.83758465118348 F900 
G1 X96.76 Y65 E1.97376905118348 F900
G1 X90 Y65 E2.05853945118348 F900
G1 X90 Y60 E2.12123945118348 F900
G1 X96.76 Y60 E2.20600985118348 F900
G1 X96.76 Y50 E2.33140985118348 F900
G1 X103.235 Y50 E2.41260635118348 F900
G1 X103.235 Y60 E2.53800635118348 F900
G1 X110 Y60 E2.62283945118348 F900
G1 X110 Y65 E2.68553945118348 F900
G1 X103.235 Y65 E2.77037255118348 F900
G1 X103.235 Y75.86 E2.90655695118348 F900
G92 E0
G0 X103.235 Y75.86 F900 Z2.1
G1 X103.235 Y75.86 E0 F900
G3 X96.76 Y75.86 I-3.235 J24.14 E1.83758465118348 F900 
G1 X96.76 Y65 E1.97376905118348 F900
G1 X90 Y65 E2.05853945118348 F900
G1 X90 Y60 E2.12123945118348 F900
G1 X96.76 Y60 E2.20600985118348 F900
G1 X96.76 Y50 E2.33140985118348 F900
G1 X103.235 Y50 E2.41260635118348 F900
G1 X103.235 Y60 E2.53800635118348 F900
G1 X110 Y60 E2.62283945118348 F900
G1 X110 Y65 E2.68553945118348 F900
G1 X103.235 Y65 E2.77037255118348 F900
G1 X103.235 Y75.86 E2.90655695118348 F900
G92 E0
G0 X103.235 Y75.86 F900 Z2.2
G1 X103.235 Y75.86 E0 F900
G3 X96.76 Y75.86 I-3.235 J24.14 E1.83758465118348 F900 
G1 X96.76 Y65 E1.97376905118348 F900
G1 X90 Y65 E2.05853945118348 F900
G1 X90 Y60 E2.12123945118348 F900
G1 X96.76 Y60 E2.20600985118348 F900
G1 X96.76 Y50 E2.33140985118348 F900
G1 X103.235 Y50 E2.41260635118348 F900
G1 X103.235 Y60 E2.53800635118348 F900
G1 X110 Y60 E2.62283945118348 F900
G1 X110 Y65 E2.68553945118348 F900
G1 X103.235 Y65 E2.77037255118348 F900
G1 X103.235 Y75.86 E2.90655695118348 F900
G92 E0
G0 X103.235 Y75.86 F900 Z2.3
G1 X103.235 Y75.86 E0 F900
G3 X96.76 Y75.86 I-3.235 J24.14 E1.83758465118348 F900 
G1 X96.76 Y65 E1.97376905118348 F900
G1 X90 Y65 E2.05853945118348 F900
G1 X90 Y60 E2.12123945118348 F900
G1 X96.76 Y60 E2.20600985118348 F900
G1 X96.76 Y50 E2.33140985118348 F900
G1 X103.235 Y50 E2.41260635118348 F900
G1 X103.235 Y60 E2.53800635118348 F900
G1 X110 Y60 E2.62283945118348 F900
G1 X110 Y65 E2.68553945118348 F900
G1 X103.235 Y65 E2.77037255118348 F900
G1 X103.235 Y75.86 E2.90655695118348 F900
G92 E0
G0 X103.235 Y75.86 F900 Z2.4
G1 X103.235 Y75.86 E0 F900
G3 X96.76 Y75.86 I-3.235 J24.14 E1.83758465118348 F900 
G1 X96.76 Y65 E1.97376905118348 F900
G1 X90 Y65 E2.05853945118348 F900
G1 X90 Y60 E2.12123945118348 F900
G1 X96.76 Y60 E2.20600985118348 F900
G1 X96.76 Y50 E2.33140985118348 F900
G1 X103.235 Y50 E2.41260635118348 F900
G1 X103.235 Y60 E2.53800635118348 F900
G1 X110 Y60 E2.62283945118348 F900
G1 X110 Y65 E2.68553945118348 F900
G1 X103.235 Y65 E2.77037255118348 F900
G1 X103.235 Y75.86 E2.90655695118348 F900
G92 E0
G0 X103.235 Y75.86 F900 Z2.5
G1 X103.235 Y75.86 E0 F900
G3 X96.76 Y75.86 I-3.235 J24.14 E1.83758465118348 F900 
G1 X96.76 Y65 E1.97376905118348 F900
G1 X90 Y65 E2.05853945118348 F900
G1 X90 Y60 E2.12123945118348 F900
G1 X96.76 Y60 E2.20600985118348 F900
G1 X96.76 Y50 E2.33140985118348 F900
G1 X103.235 Y50 E2.41260635118348 F900
G1 X103.235 Y60 E2.53800635118348 F900
G1 X110 Y60 E2.62283945118348 F900
G1 X110 Y65 E2.68553945118348 F900
G1 X103.235 Y65 E2.77037255118348 F900
G1 X103.235 Y75.86 E2.90655695118348 F900
G92 E0
G0 X103.235 Y75.86 F900 Z2.6
G1 X103.235 Y75.86 E0 F900
G3 X96.76 Y75.86 I-3.235 J24.14 E1.83758465118348 F900 
G1 X96.76 Y65 E1.97376905118348 F900
G1 X90 Y65 E2.05853945118348 F900
G1 X90 Y60 E2.12123945118348 F900
G1 X96.76 Y60 E2.20600985118348 F900
G1 X96.76 Y50 E2.33140985118348 F900
G1 X103.235 Y50 E2.41260635118348 F900
G1 X103.235 Y60 E2.53800635118348 F900
G1 X110 Y60 E2.62283945118348 F900
G1 X110 Y65 E2.68553945118348 F900
G1 X103.235 Y65 E2.77037255118348 F900
G1 X103.235 Y75.86 E2.90655695118348 F900
G92 E0
G0 X103.235 Y75.86 F900 Z2.7
G1 X103.235 Y75.86 E0 F900
G3 X96.76 Y75.86 I-3.235 J24.14 E1.83758465118348 F900 
G1 X96.76 Y65 E1.97376905118348 F900
G1 X90 Y65 E2.05853945118348 F900
G1 X90 Y60 E2.12123945118348 F900
G1 X96.76 Y60 E2.20600985118348 F900
G1 X96.76 Y50 E2.33140985118348 F900
G1 X103.235 Y50 E2.41260635118348 F900
G1 X103.235 Y60 E2.53800635118348 F900
G1 X110 Y60 E2.62283945118348 F900
G1 X110 Y65 E2.68553945118348 F900
G1 X103.235 Y65 E2.77037255118348 F900
G1 X103.235 Y75.86 E2.90655695118348 F900
G92 E0
G0 X103.235 Y75.86 F900 Z2.8
G1 X103.235 Y75.86 E0 F900
G3 X96.76 Y75.86 I-3.235 J24.14 E1.83758465118348 F900 
G1 X96.76 Y65 E1.97376905118348 F900
G1 X90 Y65 E2.05853945118348 F900
G1 X90 Y60 E2.12123945118348 F900
G1 X96.76 Y60 E2.20600985118348 F900
G1 X96.76 Y50 E2.33140985118348 F900
G1 X103.235 Y50 E2.41260635118348 F900
G1 X103.235 Y60 E2.53800635118348 F900
G1 X110 Y60 E2.62283945118348 F900
G1 X110 Y65 E2.68553945118348 F900
G1 X103.235 Y65 E2.77037255118348 F900
G1 X103.235 Y75.86 E2.90655695118348 F900
G92 E0
G0 X103.235 Y75.86 F900 Z2.9
G1 X103.235 Y75.86 E0 F900
G3 X96.76 Y75.86 I-3.235 J24.14 E1.83758465118348 F900 
G1 X96.76 Y65 E1.97376905118348 F900
G1 X90 Y65 E2.05853945118348 F900
G1 X90 Y60 E2.12123945118348 F900
G1 X96.76 Y60 E2.20600985118348 F900
G1 X96.76 Y50 E2.33140985118348 F900
G1 X103.235 Y50 E2.41260635118348 F900
G1 X103.235 Y60 E2.53800635118348 F900
G1 X110 Y60 E2.62283945118348 F900
G1 X110 Y65 E2.68553945118348 F900
G1 X103.235 Y65 E2.77037255118348 F900
G1 X103.235 Y75.86 E2.90655695118348 F900
G92 E0
G0 X103.235 Y75.86 F900 Z3
G1 X103.235 Y75.86 E0 F900
G3 X96.76 Y75.86 I-3.235 J24.14 E1.83758465118348 F900 
G1 X96.76 Y65 E1.97376905118348 F900
G1 X90 Y65 E2.05853945118348 F900
G1 X90 Y60 E2.12123945118348 F900
G1 X96.76 Y60 E2.20600985118348 F900
G1 X96.76 Y50 E2.33140985118348 F900
G1 X103.235 Y50 E2.41260635118348 F900
G1 X103.235 Y60 E2.53800635118348 F900
G1 X110 Y60 E2.62283945118348 F900
G1 X110 Y65 E2.68553945118348 F900
G1 X103.235 Y65 E2.77037255118348 F900
G1 X103.235 Y75.86 E2.90655695118348 F900
G92 E0
G0 X103.235 Y75.86 F900 Z3.1
G1 X103.235 Y75.86 E0 F900
G3 X96.76 Y75.86 I-3.235 J24.14 E1.83758465118348 F900 
G1 X96.76 Y65 E1.97376905118348 F900
G1 X90 Y65 E2.05853945118348 F900
G1 X90 Y60 E2.12123945118348 F900
G1 X96.76 Y60 E2.20600985118348 F900
G1 X96.76 Y50 E2.33140985118348 F900
G1 X103.235 Y50 E2.41260635118348 F900
G1 X103.235 Y60 E2.53800635118348 F900
G1 X110 Y60 E2.62283945118348 F900
G1 X110 Y65 E2.68553945118348 F900
G1 X103.235 Y65 E2.77037255118348 F900
G1 X103.235 Y75.86 E2.90655695118348 F900
G92 E0
G0 X103.235 Y75.86 F900 Z3.2
G1 X103.235 Y75.86 E0 F900
G3 X96.76 Y75.86 I-3.235 J24.14 E1.83758465118348 F900 
G1 X96.76 Y65 E1.97376905118348 F900
G1 X90 Y65 E2.05853945118348 F900
G1 X90 Y60 E2.12123945118348 F900
G1 X96.76 Y60 E2.20600985118348 F900
G1 X96.76 Y50 E2.33140985118348 F900
G1 X103.235 Y50 E2.41260635118348 F900
G1 X103.235 Y60 E2.53800635118348 F900
G1 X110 Y60 E2.62283945118348 F900
G1 X110 Y65 E2.68553945118348 F900
