;Generated with FabNeuch Engine 0.1
;Basic settings: Layer height: 0.1 Walls: 0.1 Fill: 0
G21        
G90        
M107       
G28 X0 Y0
G28 Z0
G1 Z15.0 F500  
G92 E0
G1 F200 E3  
G92 E0                  
G1 F9000 
M117 Printing...
;total_layers= 50
G92 E0
G0 X0 Y0 F900 Z0.3
G1 X0 Y-30 E0.3762 F900
G2 X30 Y0 I0 J30 E2.14900073442072 F900 
G1 X0 Y0 E2.52520073442072 F900
G92 E0
G0 X0 Y0 F900 Z0.4
G1 X0 Y-30 E0.3762 F900
G2 X30 Y0 I0 J30 E2.14900073442072 F900 
G1 X0 Y0 E2.52520073442072 F900
G92 E0
G0 X0 Y0 F900 Z0.5
G1 X0 Y-30 E0.3762 F900
G2 X30 Y0 I0 J30 E2.14900073442072 F900 
G1 X0 Y0 E2.52520073442072 F900
G92 E0
G0 X0 Y0 F900 Z0.6
G1 X0 Y-30 E0.3762 F900
G2 X30 Y0 I0 J30 E2.14900073442072 F900 
G1 X0 Y0 E2.52520073442072 F900
G92 E0
G0 X0 Y0 F900 Z0.7
G1 X0 Y-30 E0.3762 F900
G2 X30 Y0 I0 J30 E2.14900073442072 F900 
G1 X0 Y0 E2.52520073442072 F900
G92 E0
G0 X0 Y0 F900 Z0.8
G1 X0 Y-30 E0.3762 F900
G2 X30 Y0 I0 J30 E2.14900073442072 F900 
G1 X0 Y0 E2.52520073442072 F900
G92 E0
G0 X0 Y0 F900 Z0.9
G1 X0 Y-30 E0.3762 F900
G2 X30 Y0 I0 J30 E2.14900073442072 F900 
G1 X0 Y0 E2.52520073442072 F900
G92 E0
G0 X0 Y0 F900 Z1
G1 X0 Y-30 E0.3762 F900
G2 X30 Y0 I0 J30 E2.14900073442072 F900 
G1 X0 Y0 E2.52520073442072 F900
G92 E0
G0 X0 Y0 F900 Z1.1
G1 X0 Y-30 E0.3762 F900
G2 X30 Y0 I0 J30 E2.14900073442072 F900 
G1 X0 Y0 E2.52520073442072 F900
G92 E0
G0 X0 Y0 F900 Z1.2
G1 X0 Y-30 E0.3762 F900
G2 X30 Y0 I0 J30 E2.14900073442072 F900 
G1 X0 Y0 E2.52520073442072 F900
G92 E0
G0 X0 Y0 F900 Z1.3
G1 X0 Y-30 E0.3762 F900
G2 X30 Y0 I0 J30 E2.14900073442072 F900 
G1 X0 Y0 E2.52520073442072 F900
G92 E0
G0 X0 Y0 F900 Z1.4
G1 X0 Y-30 E0.3762 F900
G2 X30 Y0 I0 J30 E2.14900073442072 F900 
G1 X0 Y0 E2.52520073442072 F900
G92 E0
G0 X0 Y0 F900 Z1.5
G1 X0 Y-30 E0.3762 F900
G2 X30 Y0 I0 J30 E2.14900073442072 F900 
G1 X0 Y0 E2.52520073442072 F900
G92 E0
G0 X0 Y0 F900 Z1.6
G1 X0 Y-30 E0.3762 F900
G2 X30 Y0 I0 J30 E2.14900073442072 F900 
G1 X0 Y0 E2.52520073442072 F900
G92 E0
G0 X0 Y0 F900 Z1.7
G1 X0 Y-30 E0.3762 F900
G2 X30 Y0 I0 J30 E2.14900073442072 F900 
G1 X0 Y0 E2.52520073442072 F900
G92 E0
G0 X0 Y0 F900 Z1.8
G1 X0 Y-30 E0.3762 F900
G2 X30 Y0 I0 J30 E2.14900073442072 F900 
G1 X0 Y0 E2.52520073442072 F900
G92 E0
G0 X0 Y0 F900 Z1.9
G1 X0 Y-30 E0.3762 F900
G2 X30 Y0 I0 J30 E2.14900073442072 F900 
G1 X0 Y0 E2.52520073442072 F900
G92 E0
G0 X0 Y0 F900 Z2
G1 X0 Y-30 E0.3762 F900
G2 X30 Y0 I0 J30 E2.14900073442072 F900 
G1 X0 Y0 E2.52520073442072 F900
G92 E0
G0 X0 Y0 F900 Z2.1
G1 X0 Y-30 E0.3762 F900
G2 X30 Y0 I0 J30 E2.14900073442072 F900 
G1 X0 Y0 E2.52520073442072 F900
G92 E0
G0 X0 Y0 F900 Z2.2
G1 X0 Y-30 E0.3762 F900
G2 X30 Y0 I0 J30 E2.14900073442072 F900 
G1 X0 Y0 E2.52520073442072 F900
G92 E0
G0 X0 Y0 F900 Z2.3
G1 X0 Y-30 E0.3762 F900
G2 X30 Y0 I0 J30 E2.14900073442072 F900 
G1 X0 Y0 E2.52520073442072 F900
G92 E0
G0 X0 Y0 F900 Z2.4
G1 X0 Y-30 E0.3762 F900
G2 X30 Y0 I0 J30 E2.14900073442072 F900 
G1 X0 Y0 E2.52520073442072 F900
G92 E0
G0 X0 Y0 F900 Z2.5
G1 X0 Y-30 E0.3762 F900
G2 X30 Y0 I0 J30 E2.14900073442072 F900 
G1 X0 Y0 E2.52520073442072 F900
G92 E0
G0 X0 Y0 F900 Z2.6
G1 X0 Y-30 E0.3762 F900
G2 X30 Y0 I0 J30 E2.14900073442072 F900 
G1 X0 Y0 E2.52520073442072 F900
G92 E0
G0 X0 Y0 F900 Z2.7
G1 X0 Y-30 E0.3762 F900
G2 X30 Y0 I0 J30 E2.14900073442072 F900 
G1 X0 Y0 E2.52520073442072 F900
G92 E0
G0 X0 Y0 F900 Z2.8
G1 X0 Y-30 E0.3762 F900
G2 X30 Y0 I0 J30 E2.14900073442072 F900 
G1 X0 Y0 E2.52520073442072 F900
G92 E0
G0 X0 Y0 F900 Z2.9
G1 X0 Y-30 E0.3762 F900
G2 X30 Y0 I0 J30 E2.14900073442072 F900 
G1 X0 Y0 E2.52520073442072 F900
G92 E0
G0 X0 Y0 F900 Z3
G1 X0 Y-30 E0.3762 F900
G2 X30 Y0 I0 J30 E2.14900073442072 F900 
G1 X0 Y0 E2.52520073442072 F900
G92 E0
G0 X0 Y0 F900 Z3.1
G1 X0 Y-30 E0.3762 F900
G2 X30 Y0 I0 J30 E2.14900073442072 F900 
G1 X0 Y0 E2.52520073442072 F900
G92 E0
G0 X0 Y0 F900 Z3.2
G1 X0 Y-30 E0.3762 F900
G2 X30 Y0 I0 J30 E2.14900073442072 F900 
G1 X0 Y0 E2.52520073442072 F900
G92 E0
G0 X0 Y0 F900 Z3.3
G1 X0 Y-30 E0.3762 F900
G2 X30 Y0 I0 J30 E2.14900073442072 F900 
G1 X0 Y0 E2.52520073442072 F900
G92 E0
G0 X0 Y0 F900 Z3.4
G1 X0 Y-30 E0.3762 F900
G2 X30 Y0 I0 J30 E2.14900073442072 F900 
G1 X0 Y0 E2.52520073442072 F900
G92 E0
G0 X0 Y0 F900 Z3.5
G1 X0 Y-30 E0.3762 F900
G2 X30 Y0 I0 J30 E2.14900073442072 F900 
G1 X0 Y0 E2.52520073442072 F900
G92 E0
G0 X0 Y0 F900 Z3.6
G1 X0 Y-30 E0.3762 F900
G2 X30 Y0 I0 J30 E2.14900073442072 F900 
G1 X0 Y0 E2.52520073442072 F900
G92 E0
G0 X0 Y0 F900 Z3.7
G1 X0 Y-30 E0.3762 F900
G2 X30 Y0 I0 J30 E2.14900073442072 F900 
G1 X0 Y0 E2.52520073442072 F900
G92 E0
G0 X0 Y0 F900 Z3.8
G1 X0 Y-30 E0.3762 F900
G2 X30 Y0 I0 J30 E2.14900073442072 F900 
G1 X0 Y0 E2.52520073442072 F900
G92 E0
G0 X0 Y0 F900 Z3.9
G1 X0 Y-30 E0.3762 F900
G2 X30 Y0 I0 J30 E2.14900073442072 F900 
G1 X0 Y0 E2.52520073442072 F900
G92 E0
G0 X0 Y0 F900 Z4
G1 X0 Y-30 E0.3762 F900
G2 X30 Y0 I0 J30 E2.14900073442072 F900 
G1 X0 Y0 E2.52520073442072 F900
G92 E0
G0 X0 Y0 F900 Z4.1
G1 X0 Y-30 E0.3762 F900
G2 X30 Y0 I0 J30 E2.14900073442072 F900 
G1 X0 Y0 E2.52520073442072 F900
G92 E0
G0 X0 Y0 F900 Z4.2
G1 X0 Y-30 E0.3762 F900
G2 X30 Y0 I0 J30 E2.14900073442072 F900 
G1 X0 Y0 E2.52520073442072 F900
G92 E0
G0 X0 Y0 F900 Z4.3
G1 X0 Y-30 E0.3762 F900
G2 X30 Y0 I0 J30 E2.14900073442072 F900 
G1 X0 Y0 E2.52520073442072 F900
G92 E0
G0 X0 Y0 F900 Z4.4
G1 X0 Y-30 E0.3762 F900
G2 X30 Y0 I0 J30 E2.14900073442072 F900 
G1 X0 Y0 E2.52520073442072 F900
G92 E0
G0 X0 Y0 F900 Z4.5
G1 X0 Y-30 E0.3762 F900
G2 X30 Y0 I0 J30 E2.14900073442072 F900 
G1 X0 Y0 E2.52520073442072 F900
G92 E0
G0 X0 Y0 F900 Z4.6
G1 X0 Y-30 E0.3762 F900
G2 X30 Y0 I0 J30 E2.14900073442072 F900 
G1 X0 Y0 E2.52520073442072 F900
G92 E0
G0 X0 Y0 F900 Z4.7
G1 X0 Y-30 E0.3762 F900
G2 X30 Y0 I0 J30 E2.14900073442072 F900 
G1 X0 Y0 E2.52520073442072 F900
G92 E0
G0 X0 Y0 F900 Z4.8
G1 X0 Y-30 E0.3762 F900
G2 X30 Y0 I0 J30 E2.14900073442072 F900 
G1 X0 Y0 E2.52520073442072 F900
G92 E0
G0 X0 Y0 F900 Z4.9
G1 X0 Y-30 E0.3762 F900
G2 X30 Y0 I0 J30 E2.14900073442072 F900 
G1 X0 Y0 E2.52520073442072 F900
G92 E0
G0 X0 Y0 F900 Z5
G1 X0 Y-30 E0.3762 F900
G2 X30 Y0 I0 J30 E2.14900073442072 F900 
G1 X0 Y0 E2.52520073442072 F900
G92 E0
G0 X0 Y0 F900 Z5.1
G1 X0 Y-30 E0.3762 F900
G2 X30 Y0 I0 J30 E2.14900073442072 F900 
G1 X0 Y0 E2.52520073442072 F900
G92 E0
G0 X0 Y0 F900 Z5.2
G1 X0 Y-30 E0.3762 F900
G2 X30 Y0 I0 J30 E2.14900073442072 F900 
G1 X0 Y0 E2.52520073442072 F900
